X: 88
T:Shamtrues. JBa.87
T:Gin ye kiss my wife,I'll tell the Minister,aka. JBa.87
T:Sean Triubhas,aka. JBa.87
M:4/4
L:1/4
Q:80
S:Joseph Barnes MS,Carlisle,1762.
R:Misc
O:England
A:Carlisle
N:Also aka Devil stick the minister,aka shaun truish willichan.1 - No bar
N:line 2 - Not marked as triplet 3  - is it a mistake, a chordor an
N:alternative 4 -  Starred notes shown as crochets and no bar line.5 -
N:Shown as crochets..CGr.
H:See 'The Caledonian Companion' - two part version. 'This was originally
H:a tune for the Sean Triubhas, an ancient highland dance . . .'  This
H:version transposed to same notes as MS would be in F major - or a mode
H:having that key signature. Is 'Shambuco' a phonetic mishearing of 'Sean
H:Triubhas'CGr.
Z:vmp.C.Graebe.
K:F major
"No key/time sig,see note"A,D/-D/ (F/E/) C |\
F (E/D/) G/E/ C/E/ | A, D/D/ (F/E/) C "1" |\
F"2" (3(F/E/D/) C A,/A,/ :||:! 
A/c/ A/F/ G/B/ G/E/ |A/c/ A/F/ G"3" (E/E/) |\
  A/c/ A/F/ G/B/ G/E/|F (E/D/) C A,/A,/ ||!
 A d-d f/ e A | f (e/d/) g/e/ c/e/ |\
"4"A "*"d/-"*"d/ f e/c/ | f ("*"e/"*"d/) c "*"A/"*"A/ ||!
f "5"(g/4f/4e/4d/4) e "5"(a/4g/4f/4e/4) |\
 a "5"(b/4a/4g/4f/4) g ("*"e/"*"e/) |\
a ("5"b/4a/4"*"g/4"*"f/4)  g ("5"a/4g/4f/4e/4) |\
 f (e/d/) A A/-A/ |]
